Hatter-kde/actions/22/colors-luma.svg

<?xml version="1.0"?>
<!-- Created with Inkscape (http://www.inkscape.org/) -->
<svg xmlns:dc="http://purl.org/dc/elements/1.1/" xmlns:cc="http://creativecommons.org/ns#" xmlns:rdf="http://www.w3.org/1999/02/22-rdf-syntax-ns#" xmlns:svg="http://www.w3.org/2000/svg" xmlns="http://www.w3.org/2000/svg" xmlns:xlink="http://www.w3.org/1999/xlink" xmlns:sodipodi="http://sodipodi.sourceforge.net/DTD/sodipodi-0.dtd" xmlns:inkscape="http://www.inkscape.org/namespaces/inkscape" width="22" height="22" id="svg4355" version="1.1" inkscape:version="0.91 r13725" sodipodi:docname="colors-luma.svg">
  <defs id="defs4357">
    <style type="text/css" id="current-color-scheme">
      .ColorScheme-Text {
        color:#363636;
      }
      .ColorScheme-Background {
        color:#eff0f1;
      }
      .ColorScheme-Highlight {
        color:#3daee9;
      }
      .ColorScheme-ViewText {
        color:#31363b;
      }
      .ColorScheme-ViewBackground {
        color:#fcfcfc;
      }
      .ColorScheme-ViewHover {
        color:#93cee9;
      }
      .ColorScheme-ViewFocus{
        color:#3daee9;
      }
      .ColorScheme-ButtonText {
        color:#31363b;
      }
      .ColorScheme-ButtonBackground {
        color:#eff0f1;
      }
      .ColorScheme-ButtonHover {
        color:#93cee9;
      }
      .ColorScheme-ButtonFocus{
        color:#3daee9;
      }
      </style>
    <linearGradient id="linearGradient4012" inkscape:collect="always">
      <stop id="stop4014" offset="0" style="stop-color:#1d99f3;stop-opacity:1"/>
      <stop style="stop-color:#48acf5;stop-opacity:0.76119405" offset="0.41666669" id="stop4016"/>
      <stop style="stop-color:#73c0f7;stop-opacity:0" offset="0.66666329" id="stop4018"/>
      <stop id="stop4020" offset="1" style="stop-color:#cae7fc;stop-opacity:0"/>
    </linearGradient>
    <linearGradient inkscape:collect="always" xlink:href="#linearGradient4012" id="linearGradient4164" x1="3" y1="1049.3622" x2="19" y2="1033.3622" gradientUnits="userSpaceOnUse" gradientTransform="matrix(0.75,0,0,0.75,1.7499999,269.34054)"/>
    <linearGradient inkscape:collect="always" xlink:href="#linearGradient4012" id="linearGradient3983" gradientUnits="userSpaceOnUse" gradientTransform="matrix(0.75,0,0,0.75,2.7499999,262.34058)" x1="3" y1="1049.3622" x2="24.333334" y2="1028.0288"/>
    <linearGradient y2="1028.0288" x2="24.333334" y1="1049.3622" x1="3" gradientTransform="matrix(0.75,0,0,0.75,3.7499999,-767.02162)" gradientUnits="userSpaceOnUse" id="linearGradient4007" xlink:href="#linearGradient4012" inkscape:collect="always"/>
    <linearGradient y2="1033.3622" x2="19" y1="1049.3622" x1="3" gradientTransform="matrix(0.75,0,0,0.75,3.7499999,-767.02162)" gradientUnits="userSpaceOnUse" id="linearGradient4010" xlink:href="#linearGradient4012" inkscape:collect="always"/>
    <linearGradient inkscape:collect="always" xlink:href="#linearGradient4012" id="linearGradient4164-76" x1="3" y1="1049.3622" x2="19" y2="1033.3622" gradientUnits="userSpaceOnUse" gradientTransform="matrix(0.75,0,0,0.75,3.7499999,-769.02166)"/>
    <inkscape:perspective id="perspective4090" inkscape:persp3d-origin="12 : 8 : 1" inkscape:vp_z="24 : 12 : 1" inkscape:vp_y="0 : 1000 : 0" inkscape:vp_x="0 : 12 : 1" sodipodi:type="inkscape:persp3d"/>
    <clipPath clipPathUnits="userSpaceOnUse" id="clipPath4160">
      <rect style="opacity:1;fill:#f2f2f2;fill-opacity:1;stroke:none;stroke-opacity:1" id="rect4162" width="1" height="1" x="7" y="1023.3622"/>
    </clipPath>
    <clipPath clipPathUnits="userSpaceOnUse" id="clipPath4160-4">
      <rect style="opacity:1;fill:#f2f2f2;fill-opacity:1;stroke:none;stroke-opacity:1" id="rect4162-9" width="1" height="1" x="7" y="1023.3622"/>
    </clipPath>
    <clipPath clipPathUnits="userSpaceOnUse" id="clipPath4160-3">
      <rect style="opacity:1;fill:#f2f2f2;fill-opacity:1;stroke:none;stroke-opacity:1" id="rect4162-0" width="1" height="1" x="7" y="1023.3622"/>
    </clipPath>
  </defs>
  <sodipodi:namedview id="base" pagecolor="#ffffff" bordercolor="#666666" borderopacity="1.0" inkscape:pageopacity="0.0" inkscape:pageshadow="2" inkscape:zoom="22.627417" inkscape:cx="12.361839" inkscape:cy="11.600164" inkscape:document-units="px" inkscape:current-layer="layer1" showgrid="true" width="0px" height="0px" fit-margin-top="0" fit-margin-left="0" fit-margin-right="0" fit-margin-bottom="0" inkscape:window-width="1366" inkscape:window-height="709" inkscape:window-x="-4" inkscape:window-y="0" inkscape:window-maximized="1" inkscape:showpageshadow="false" inkscape:snap-bbox="true" inkscape:snap-global="true" inkscape:object-nodes="true">
    <inkscape:grid type="xygrid" id="grid4114"/>
    <sodipodi:guide position="2,13" orientation="18,0" id="guide4120"/>
    <sodipodi:guide position="2.0000011,1.9999962" orientation="0,18" id="guide4122"/>
    <sodipodi:guide position="20.000001,1.9999962" orientation="-18,0" id="guide4124"/>
    <sodipodi:guide position="20.000001,19.999996" orientation="0,-18" id="guide4126"/>
    <sodipodi:guide position="3,6" orientation="16,0" id="guide4128"/>
    <sodipodi:guide position="3.0000011,2.9999962" orientation="0,16" id="guide4130"/>
    <sodipodi:guide position="19.000001,2.9999962" orientation="-16,0" id="guide4132"/>
    <sodipodi:guide position="6,19" orientation="0,-16" id="guide4134"/>
  </sodipodi:namedview>
  <metadata id="metadata4360">
    <rdf:RDF>
      <cc:Work rdf:about="">
        <dc:format>image/svg+xml</dc:format>
        <dc:type rdf:resource="http://purl.org/dc/dcmitype/StillImage"/>
        <dc:title/>
      </cc:Work>
    </rdf:RDF>
  </metadata>
  <g inkscape:label="Capa 1" inkscape:groupmode="layer" id="layer1" transform="translate(-544.57141,-742.93359)">
    <g transform="translate(544.57141,-287.42861)" id="layer1-5" inkscape:label="Capa 1">
      <g transform="translate(1,0)" id="g4071">
        <path inkscape:connector-curvature="0" style="fill:#b3b3b3;fill-opacity:1;stroke:none" d="M 11,4 C 10.027093,7.405 7.643601,10.344 6.59375,12.6875 6.226346,13.3843 6,14.1546 6,15 c 0,2.77 2.229998,5 5,5 2.770002,0 5,-2.23 5,-5 0,-0.8454 -0.226346,-1.6157 -0.59375,-2.3125 C 14.3564,10.344 11.972897,7.405 11,4 Z" transform="translate(-1,1029.3622)" id="rect4346"/>
        <path inkscape:connector-curvature="0" style="fill:#777777;fill-opacity:1;stroke:none" d="M 11,4 C 10.700536,5.0480708 10.267972,6.0440062 9.78125,7 L 11,7 11,4 Z m 0,3 0,4 3.5,0 C 13.795435,9.7864267 12.954902,8.4459099 12.21875,7 L 11,7 Z m 0,4 -3.5,0 C 7.33302,11.287614 7.1459679,11.570094 7,11.84375 L 7,15 l 4,0 0,-4 z m 0,4 0,4 3,0 c 0.381284,-0.285502 0.714498,-0.618716 1,-1 l 0,-3 -4,0 z" transform="translate(-1,1029.3622)" id="rect4352-0"/>
        <path inkscape:connector-curvature="0" style="fill:url(#linearGradient4010);fill-opacity:1;stroke:none" d="M 11,4 C 10.027093,7.405 7.643601,10.344 6.59375,12.6875 6.226346,13.3843 6,14.1546 6,15 c 0,2.77 2.229998,5 5,5 2.770002,0 5,-2.23 5,-5 0,-0.8454 -0.226346,-1.6157 -0.59375,-2.3125 C 14.3564,10.344 11.972897,7.405 11,4 Z" transform="translate(-1,1029.3622)" id="rect4156"/>
        <g transform="translate(-379.85714,490.28573)" id="layer1-0" inkscape:label="Capa 1">
          <path inkscape:connector-curvature="0" style="fill:currentColor;fill-opacity:1;stroke:none" d="M 11,4 C 10.027093,7.4050342 7.6436006,10.343996 6.59375,12.6875 6.2263456,13.384271 6,14.15458 6,15 c 0,2.770002 2.2299982,5 5,5 2.770002,0 5,-2.229998 5,-5 0,-0.84542 -0.226346,-1.615729 -0.59375,-2.3125 C 14.3564,10.343996 11.972897,7.4050342 11,4 Z m 0,2 c 0.77832,2.76658 2.69137,5.1584 3.53125,7.0625 0.155833,0.30015 0.261114,0.601048 0.34375,0.9375 0.03426,0.13949 0.07466,0.292415 0.09375,0.4375 0.0028,0.0198 -0.0025,0.0426 0,0.0625 C 14.9855,14.645223 15,14.787157 15,14.9375 c 3.28e-4,0.02116 0,0.04126 0,0.0625 -0.0039,0.258995 -0.04467,0.505177 -0.09375,0.75 -0.0037,0.01991 0.004,0.0427 0,0.0625 -0.05262,0.243957 -0.1253,0.493611 -0.21875,0.71875 -0.0038,0.0092 0.0039,0.02206 0,0.03125 -0.09893,0.23383 -0.236542,0.447761 -0.375,0.65625 -0.005,0.0075 0.005,0.0238 0,0.03125 -0.140081,0.208115 -0.29386,0.384878 -0.46875,0.5625 -0.185449,0.187767 -0.374118,0.351863 -0.59375,0.5 C 12.611797,18.74968 11.831,19 11,19 10.722502,19 10.448531,18.959691 10.1875,18.90625 10.001179,18.868105 9.8319211,18.813022 9.65625,18.75 9.6251277,18.73876 9.5932571,18.730743 9.5625,18.71875 9.5225568,18.703242 9.4767993,18.704243 9.4375,18.6875 9.3734467,18.660076 9.3122808,18.624407 9.25,18.59375 9.1406487,18.540137 9.0408985,18.469292 8.9375,18.40625 8.8660386,18.362577 8.7871849,18.329243 8.71875,18.28125 8.699779,18.267983 8.6749768,18.263587 8.65625,18.25 8.4776486,18.120416 8.3108258,17.96929 8.15625,17.8125 8.0058266,17.659921 7.8745955,17.487643 7.75,17.3125 7.7380943,17.304411 7.7305641,17.289461 7.71875,17.28125 7.2642321,16.621932 7,15.806927 7,14.9375 7,14.2506 7.17483,13.62862 7.46875,13.0625 8.30863,11.1584 10.22167,8.76658 11,6 Z" transform="translate(378.85714,539.07647)" id="rect4108" class="ColorScheme-Text"/>
        </g>
      </g>
    </g>
  </g>
</svg>

<?xml version="1.0" encoding="UTF-8"?>
<!-- Created with Inkscape (http://www.inkscape.org/) -->
<svg id="svg4355" width="22" height="22" version="1.1" xmlns="http://www.w3.org/2000/svg" xmlns:cc="http://creativecommons.org/ns#" xmlns:dc="http://purl.org/dc/elements/1.1/" xmlns:rdf="http://www.w3.org/1999/02/22-rdf-syntax-ns#" xmlns:xlink="http://www.w3.org/1999/xlink">
 <defs id="defs4357">
  <style id="current-color-scheme" type="text/css">.ColorScheme-Text {
        color:#363636;
      }
      .ColorScheme-Background {
        color:#eff0f1;
      }
      .ColorScheme-Highlight {
        color:#3daee9;
      }
      .ColorScheme-ViewText {
        color:#31363b;
      }
      .ColorScheme-ViewBackground {
        color:#fcfcfc;
      }
      .ColorScheme-ViewHover {
        color:#93cee9;
      }
      .ColorScheme-ViewFocus{
        color:#3daee9;
      }
      .ColorScheme-ButtonText {
        color:#31363b;
      }
      .ColorScheme-ButtonBackground {
        color:#eff0f1;
      }
      .ColorScheme-ButtonHover {
        color:#93cee9;
      }
      .ColorScheme-ButtonFocus{
        color:#3daee9;
      }</style>
  <linearGradient id="linearGradient4010" x1="3" x2="19" y1="1049.4" y2="1033.4" gradientTransform="matrix(.75 0 0 .75 3.75 -767.02)" gradientUnits="userSpaceOnUse">
   <stop id="stop4014" stop-color="#1d99f3" offset="0"/>
   <stop id="stop4016" stop-color="#48acf5" stop-opacity=".76119" offset=".41667"/>
   <stop id="stop4018" stop-color="#73c0f7" stop-opacity="0" offset=".66666"/>
   <stop id="stop4020" stop-color="#cae7fc" stop-opacity="0" offset="1"/>
  </linearGradient>
 </defs>
 <metadata id="metadata4360">
  <rdf:RDF>
   <cc:Work rdf:about="">
    <dc:format>image/svg+xml</dc:format>
    <dc:type rdf:resource="http://purl.org/dc/dcmitype/StillImage"/>
    <dc:title/>
   </cc:Work>
  </rdf:RDF>
 </metadata>
 <g id="layer1" transform="translate(-544.57 -742.93)">
  <g id="layer1-5" transform="translate(544.57 -287.43)">
   <g id="g4071" transform="translate(1)">
    <path id="rect4346" transform="translate(-1 1029.4)" d="m11 4c-0.97291 3.405-3.3564 6.344-4.4062 8.6875-0.3674 0.6968-0.59375 1.4671-0.59375 2.3125 0 2.77 2.23 5 5 5s5-2.23 5-5c0-0.8454-0.22635-1.6157-0.59375-2.3125-1.0498-2.3435-3.4334-5.2825-4.4062-8.6875z" fill="#b3b3b3"/>
    <path id="rect4352-0" transform="translate(-1 1029.4)" d="m11 4c-0.29946 1.0481-0.73203 2.044-1.2188 3h1.2188v-3zm0 3v4h3.5c-0.70456-1.2136-1.5451-2.5541-2.2812-4h-1.2188zm0 4h-3.5c-0.16698 0.28761-0.35403 0.57009-0.5 0.84375v3.1562h4v-4zm0 4v4h3c0.38128-0.2855 0.7145-0.61872 1-1v-3h-4z" fill="#777"/>
    <path id="rect4156" transform="translate(-1 1029.4)" d="m11 4c-0.97291 3.405-3.3564 6.344-4.4062 8.6875-0.3674 0.6968-0.59375 1.4671-0.59375 2.3125 0 2.77 2.23 5 5 5s5-2.23 5-5c0-0.8454-0.22635-1.6157-0.59375-2.3125-1.0498-2.3435-3.4334-5.2825-4.4062-8.6875z" fill="url(#linearGradient4010)"/>
    <g id="layer1-0" transform="translate(-379.86 490.29)">
     <path id="rect4108" class="ColorScheme-Text" transform="translate(378.86 539.08)" d="m11 4c-0.97291 3.405-3.3564 6.344-4.4062 8.6875-0.3674 0.69677-0.59375 1.4671-0.59375 2.3125 0 2.77 2.23 5 5 5 2.77 0 5-2.23 5-5 0-0.84542-0.22635-1.6157-0.59375-2.3125-1.0498-2.3435-3.4334-5.2825-4.4062-8.6875zm0 2c0.77832 2.7666 2.6914 5.1584 3.5312 7.0625 0.15583 0.30015 0.26111 0.60105 0.34375 0.9375 0.03426 0.13949 0.07466 0.29242 0.09375 0.4375 0.0028 0.0198-0.0025 0.0426 0 0.0625 0.01675 0.14522 0.03125 0.28716 0.03125 0.4375 3.28e-4 0.02116 0 0.04126 0 0.0625-0.0039 0.259-0.04467 0.50518-0.09375 0.75-0.0037 0.01991 4e-3 0.0427 0 0.0625-0.05262 0.24396-0.1253 0.49361-0.21875 0.71875-0.0038 0.0092 0.0039 0.02206 0 0.03125-0.09893 0.23383-0.23654 0.44776-0.375 0.65625-5e-3 0.0075 5e-3 0.0238 0 0.03125-0.14008 0.20812-0.29386 0.38488-0.46875 0.5625-0.18545 0.18777-0.37412 0.35186-0.59375 0.5-0.6382 0.43718-1.419 0.6875-2.25 0.6875-0.2775 0-0.55147-0.040309-0.8125-0.09375-0.18632-0.038145-0.35558-0.093228-0.53125-0.15625-0.031122-0.01124-0.062993-0.019257-0.09375-0.03125-0.039943-0.015508-0.085701-0.014507-0.125-0.03125-0.064053-0.027424-0.12522-0.063093-0.1875-0.09375-0.10935-0.053613-0.2091-0.12446-0.3125-0.1875-0.071461-0.043673-0.15032-0.077007-0.21875-0.125-0.018971-0.013267-0.043773-0.017663-0.0625-0.03125-0.1786-0.12958-0.34542-0.28071-0.5-0.4375-0.15042-0.15258-0.28165-0.32486-0.40625-0.5-0.011906-0.008089-0.019436-0.023039-0.03125-0.03125-0.45452-0.65932-0.71875-1.4743-0.71875-2.3438 0-0.6869 0.17483-1.3089 0.46875-1.875 0.83988-1.9041 2.7529-4.2959 3.5312-7.0625z" fill="currentColor"/>
    </g>
   </g>
  </g>
 </g>
</svg>
